X:1
T:Title
L:1/8
Q:1/4=120
M:2/4
K:C
V:1 treble nm="Voice"
V:1
 z2 z/ e/^^f/^g/ | a2- a/^g/a/b/ | c'bag | f2- f/d/e/!mp!f/ | gfed | ceac' | b2 a!f!^g | a z f2 | %8
 e2 c2 |:!mf! e4- | e2 a2 | c'4- | c'2 b2 | a2 e2 | c2 d2 | e4- | e2 z2 | ^g4- | g2 a2 |!mf! b4- | %20
 bd'b^g | f4- | fagf | (e4 | e2) z2 | e4- | e2 a2 | c'4- | c'2 b2 | a2 c2 | d2 f2 | f4- | f2 z2 | %33
 a2 ^g2 | b2 a2 | c'4- | c'aec | B3 c | def^g |99 a2 z2 | z4 :|99 b4 || ae/e/ ee | E/^F/ ^GG/A/ | %44
 BB/B/ BB | ce/d/ ce/d/ | ca/a/ aa | df/e/ df/e/ | db/b/ bb | e/!f!d/c/d/ e/d/c/d/ | e4 | f3 e | %52
 dc'ba | e2 a2 | c' a2 e | a2 ^g2 | b ^g2 b | a2 z2 | ce z2 | a z z2 | ce z2 | a2 z2 | ce z2 |: %63
!p! a z ab | c'bc'd' | e2 z2 | df z2 | A z AB | cBcd | e2 z2 |!p! df z2 | a z ab | cBcd | e2 z2 | %74
 ce z2 | B z ^GA | Bcdc | b2 ^ga | b2 z2 | z2 bc' | d'c'ba | ^g2 z2 | ce z2 | A z AB | cBcd | %85
 e2 z2 | ce z2 | B z bc' | d'c'bc' | d'2 z2 | ce z2 | (3aaa (3aaa | (3eee (3eee | (3eee (3eee | %94
 (3eee e z | d4- | d4 | d f2 f | ba^gf | !invertedturn!e4- | e4 | z bab | c'2 a2 | b4- | b4 | %105
 z a^ga | b2 e2 |99 a2 z2 | z4 || z4 | z4 :|99 c3 B || ABcd | e3 f | edcB | a2 z2 | c' z c' z | %117
 c' z z2 | c3 d | e3!f! f | g z g z | c'bag | edca | g4 | e4- | eABc | defg | e4- | e4 | agfe | %130
 dcBA | G4 | B2 d2 | fgaf | defd | BcdB | GB/d/ g2 | gf/g/ b2 | bg/b/ d'2 | d'2 z2 | z4 | gfed | %142
 cdef | g2 z2 | z4 | Bdgb | d'bgb | d4- | d4- | decd | BcAB | GB/d/ g2 | g2 z2 | A4- | A2 A2 | %155
 A^ceg | f2 e2 | a4- | a2 z2 | f4- | f2 z2 | G4- | G4 | z Bdf | e2 d2 | e4- | e2 z2 | f3 e | defg | %169
 e3 d | cdef | d3 c | Bcde | c4- | c2 z2 | e4- | e2 z2 | g4- | g2 z2 | c'4 | c'c' z2 |] %181

